!!!!SEGMENT: pl-wtm--r-1638_stefani-jozef--piekne-serce-ja-zdobilo.krn
!!!cenid: 18xx:2372
!!!COM: Stefani, Józef
!!!COM-rismid: pe30024097
!!!CDT: 1800/04/16-1876/03/19
!!!CNT: Polish
!!!OTL: Piękne serce ją zdobiło
!!!PDT:
!!!AGN:
!!!SMS-siglum: PL-Wtm
!!!SMS-shelfmark: R 1638
!!!SMS-shelfwork: W
!!!SMS-variant:
!!!SMS-altvar:
!!!NIFC-rismid: 1001115820
!!!URL-scan: http://repozytorium.nifc.pl/skany/pl-wtm-nut--r1638
!!!ONB-nifc: UWAGA: na str. 2 trzy takty nieznanego utworu
!!!OMD: Andantino
!!!key:
**kern	**kern	**kern	**text	**text
*part3	*part2	*part1	*part1	*part1
*staff3	*staff2	*staff1	*staff1	*staff1
*Iempty	*Itenor	*Isoprn&Ialto	*	*
*I"[B]	*I"[T]	*I"[S,A]	*	*
*clefF4	*clefC4	*clefG2	*	*
*k[b-]	*k[b-]	*k[b-]	*	*
*F:	*F:	*F:	*	*
*M6/8	*M6/8	*M6/8	*	*
=1	=1	=1	=1	=1
*all\right	*all\right	*all\right	*	*
!	!	!LO:TX:a:i:t=dolce	!	!
4F\	4c\	4f/ 4a	Pię-	.
8F\	8c\	8f/ 8a	-kne	.
4F\	4d\	4f/ 4b-	ser-	.
8F\	8c\	8f/ 8a	-ce	.
=2	=2	=2	=2	=2
4F\	4Bn\ 4d	4f^>/ 4g#X	ią	.
8F\	8c\	8f/ 8a	zdo-	.
4F\	4A\	4f/	-bi-	.
8F\	8c\	8f/ 8a	-ło	.
=3	=3	=3	=3	=3
4C/	4c\	4e/ 4g	Sli-	.
8C/	8c\	8f/ 8a	-czne	.
4C/	4c\	4g/ 4b-	[[o-	li-
8C/	8c\	8e/ 8cc	-ko]]	-ca
!!LO:LB:g=original
=4	=4	=4	=4	=4
4.C/	4.c\	4.f/ 4.a	mia-	.
4C/	4c\	4e/ 4g	-ła	.
8r	8r	8r	.	.
=5	=5	=5	=5	=5
4F\	4c\	4f/ 4a	Kaz-	.
8F\	8c\	8f/ 8a	-de	.
4F\	4d\	4f/ 4b-	o-	.
8F\	8c\	8f/ 8a	-ko	.
=6	=6	=6	=6	=6
*	*^	*^	*	*
4F\	4d^>/	4Bn\	4g#X^>/	4f\	ią	.
8F\	8c\	2ryy	8a/	8f\	wiel-	.
4F\	4A\	.	4f/	4f\	-bi-	.
8F\	8c\	.	8a/	8f\	-ło	.
*	*v	*v	*	*	*	*
=7	=7	=7	=7	=7	=7
8G\	8c\	8e/ 8g	4.ryy	.	.
8G\	8c\	8e/ 8g	.	Ka-	.
8G\	8G/	8e/ 8cc	.	-żda	.
8ryy	8G/	8cc\	8f\	ią	.
4ryy	4ryy	8a/	8f\	du-	.
.	.	8b-/	8f\	-sza	.
*	*	*v	*v	*	*
!!LO:PB:g=original
=8	=8	=8	=8	=8
!	!	!LO:TX:t=P:problem:[ko]chała ?	!	!
4.C/	4.c\	4.e/ 4.cc	cha-	.
4C/	4c\	4e/ 4cc	-ła	.
8r	8r	8r	.	.
=9	=9	=9	=9	=9
*	*	*^	*	*
2.ryy	4A-X/	4f/	4f\	nim	.
.	8G/	8g/	8f\	na	.
.	4F/	4f/ 4a-X	4.ryy	wie-	.
.	8F/	8f/ 8b-X	.	-ki	.
*	*	*v	*v	*	*
=10	=10	=10	=10	=10
2.ryy	4.G/	4.e/ 4.cc	z_zie-	.
.	4.G/	4.e/ 4.cc	-mi	.
=11	=11	=11	=11	=11
*	*	*^	*	*
2.ryy	4F/	4f/	4f\	posz-	.
.	8G/	8g/	8f\	-ła	.
.	8qB-/	8qb-/	.	.	.
.	4A-X/	4a-X/	4f\	wdzię-	.
.	8F/	8f/	8f\	-ki	.
=12	=12	=12	=12	=12	=12
2.ryy	4.En/	4.en/	4.en\	swe-	.
.	8C/	8c/	4.ryy	-mi	.
.	8r	8r	.	.	.
.	8r	8r	.	.	.
*	*	*v	*v	*	*
!!LO:LB:g=original
=13	=13	=13	=13	=13
4.B-X\	4.B-X\	4.f/ 4.dd-X	po-	.
4A-X\	4c\	4f/ 4cc	-szła	.
8r	8r	8r	.	.
=14	=14	=14	=14	=14
*	*	*^	*	*
4.G\	4.c\	(>4cc/	4.en/	po-	.
.	.	8b-/)	.	.	.
4.F\	4.c\	4.f/ 4.a-X	4.ryy	-szła	.
=15	=15	=15	=15	=15	=15
*	*^	*	*	*	*
!	!	!	!LO:TX:t=P:problem:zapis nieczytelny	!	!	!
(>4.B-\	4.d-X\	4.ryy	4.g/	4.f\	wdzię-	.
.	.	.	8qb-X/	.	.	.
4c\)	4c\	4ryy	4a/	4.en\	-ki	.
8C/	8c/	8B-\	8g/	.	.	.
=16	=16	=16	=16	=16	=16	=16
4.F\	4.c/	4.A\	4.g/	4.en\	swe-	.
4F\	4c/	4A\	4f/	4f\	-mi	.
8r	8r	8ryy	8r	8ryy	.	.
*	*v	*v	*	*	*	*
*	*	*v	*v	*	*
!!LO:PB:g=original
==	==	==	==	==
*-	*-	*-	*-	*-
!!!system-decoration: {(s1,s2,s3)}
!!!RDF**kern: < = below
!!!RDF**kern: > = above
!!!AIN: 1 alto 1 empty 1 soprn 1 tenor
!!!ENC: Marta Chmielewska
!!!END: 2021-06-09
!!!ENC: Andrzej Gręziak
!!!END: 2021-06-06
